src/16/panel/safeeyes_disabled.svg

<svg xmlns="http://www.w3.org/2000/svg" width="16" height="16" version="1">
 <defs>
  <style id="current-color-scheme" type="text/css">
   .ColorScheme-Text { color:#dfdfdf; } .ColorScheme-Highlight { color:#4285f4; }
  </style>
 </defs>
 <path style="fill:currentColor;opacity:0.3" class="ColorScheme-Text" d="M 8 1 C 4.122 1 1 4.122 1 8 C 1 11.878 4.122 15 8 15 C 11.8745 15 14.99475 11.882516 15 8.0097656 L 15 8 C 15 4.122 11.878 1 8 1 z M 8.0722656 3 A 5.0002324 5.0002324 0 0 1 8.0742188 3 A 5.0002324 5.0002324 0 0 1 11.535156 4.4648438 A 5.0002324 5.0002324 0 0 1 11.535156 11.535156 A 5.0002324 5.0002324 0 0 1 4.4648438 11.535156 A 5.0002324 5.0002324 0 0 1 4.4648438 4.4648438 A 5.0002324 5.0002324 0 0 1 8.0722656 3 z M 8 3.9941406 L 8 7.9941406 L 12 8 L 12 7.9941406 C 12 5.7755006 10.2184 3.9941406 8 3.9941406 z M 5 7 A 1 1 0 0 0 4 8 A 1 1 0 0 0 5 9 A 1 1 0 0 0 6 8 A 1 1 0 0 0 5 7 z M 8 10 A 1 1 0 0 0 7 11 A 1 1 0 0 0 8 12 A 1 1 0 0 0 9 11 A 1 1 0 0 0 8 10 z"/>
</svg>

<svg xmlns="http://www.w3.org/2000/svg" width="16" height="16" version="1"><defs><style id="current-color-scheme" type="text/css">.ColorScheme-Text{color:#dfdfdf;}.ColorScheme-Highlight{color:#5294e2;}</style></defs><defs><style id="current-color-scheme" type="text/css"></style></defs><path d="M8 1C4.122 1 1 4.122 1 8s3.122 7 7 7a6.985 6.985 0 0 0 7-6.99V8c0-3.878-3.122-7-7-7zm.072 2a5 5 0 0 1 .002 0 5 5 0 0 1 3.461 1.465 5 5 0 0 1 0 7.07 5 5 0 0 1-7.07 0 5 5 0 0 1 0-7.07A5 5 0 0 1 8.072 3zM8 3.994v4L12 8v-.006c0-2.218-1.782-4-4-4zM5 7a1 1 0 0 0-1 1 1 1 0 0 0 1 1 1 1 0 0 0 1-1 1 1 0 0 0-1-1zm3 3a1 1 0 0 0-1 1 1 1 0 0 0 1 1 1 1 0 0 0 1-1 1 1 0 0 0-1-1z" fill="currentColor" opacity=".3" class="ColorScheme-Text"/></svg>
